X:66
T:9th P Ver 9 10 11. WHG.065
R:hymn
S:W.H.Giles MS,Bampton,Oxfordshire,1839p65
O:England
H:donated by Mrs W.R.Kettlewell to VWML,Apr 1927.
A:Bampton, Oxfordshire
Z:PJHeadford – VMP 2009
M:3/2
L:1/4
Q:1/2=100
K:C
c2G2 (c>B)|A2B2 c2|(de/f/) e2d2|c4 (cd/e/)|\
(d2c2) B2|AB/c/ B2A2|G4||
“_p”c>B|A2G2 c2|F2E2 FG/A/|(AG GF) (FE)|\
E2D2 G2″_f”|A2B2 c2|A>d c2B2|Hc4|]

